static/image/contact/icon_arrow-white.svg

<svg height="30" viewBox="0 0 16 30" width="16" xmlns="http://www.w3.org/2000/svg"><path d="m451.234375 55.9316406c0-.1171881.024414-.2392572.073242-.3662109.048829-.1269538.12207-.2392573.219727-.3369141.195313-.1757821.429686-.2636718.703125-.2636718s.507811.0878897.703125.2636718l13.242187 13.2421875 13.03711-13.0371093c.195313-.1953135.429686-.2929688.703125-.2929688.273438 0 .507811.0976553.703125.2929688.195313.1953134.292968.4296861.292968.703125 0 .2734388-.097655.5078115-.292968.703125l-13.740235 13.7402343c-.195313.1953135-.429686.2929688-.703125.2929688s-.507811-.0976553-.703125-.2929688l-13.945312-13.9160156c-.097657-.0976567-.170898-.2099603-.219727-.3369141-.048828-.1269537-.073242-.2587883-.073242-.3955078z" fill="#fff" fill-rule="evenodd" transform="matrix(0 -1 1 0 -54.845703 480.992187)"/></svg>

<?xml version="1.0" encoding="UTF-8"?>
<svg width="16px" height="30px" viewBox="0 0 16 30" version="1.1" xmlns="http://www.w3.org/2000/svg" xmlns:xlink="http://www.w3.org/1999/xlink">
    <!-- Generator: Sketch 48.2 (47327) - http://www.bohemiancoding.com/sketch -->
    <title>icon_arrow</title>
    <desc>Created with Sketch.</desc>
    <defs></defs>
    <g id="brand_pc" stroke="none" stroke-width="1" fill="none" fill-rule="evenodd" transform="translate(-928.000000, -9521.000000)">
        <g id="sec_contact" transform="translate(460.000000, 9159.000000)" fill="#FFFFFF">
            <g id="btn" transform="translate(10.000000, 314.000000)">
                <path d="M451.234375,55.9316406 C451.234375,55.8144525 451.258789,55.6923834 451.307617,55.5654297 C451.356446,55.4384759 451.429687,55.3261724 451.527344,55.2285156 C451.722657,55.0527335 451.95703,54.9648438 452.230469,54.9648438 C452.503908,54.9648438 452.73828,55.0527335 452.933594,55.2285156 L466.175781,68.4707031 L479.212891,55.4335938 C479.408204,55.2382803 479.642577,55.140625 479.916016,55.140625 C480.189454,55.140625 480.423827,55.2382803 480.619141,55.4335938 C480.814454,55.6289072 480.912109,55.8632799 480.912109,56.1367188 C480.912109,56.4101576 480.814454,56.6445303 480.619141,56.8398438 L466.878906,70.5800781 C466.683593,70.7753916 466.44922,70.8730469 466.175781,70.8730469 C465.902342,70.8730469 465.66797,70.7753916 465.472656,70.5800781 L451.527344,56.6640625 C451.429687,56.5664058 451.356446,56.4541022 451.307617,56.3271484 C451.258789,56.2001947 451.234375,56.0683601 451.234375,55.9316406 Z" id="icon_arrow" transform="translate(466.073242, 62.918945) rotate(-90.000000) translate(-466.073242, -62.918945) "></path>
            </g>
        </g>
    </g>
</svg>
